!!!COM: Haydn, Franz Joseph
!!!OTL: String Quartet in E-flat Major
!!!OPS: Opus 64
!!!ONM: No. 6
!!!OMD: Menuetto: Allegretto
!!!OMV: 3
!!!SCT: H III:64
!!!SCA: Thematisch-bibliographisches Werkevererzeichnis (A. van Hoboken)
!!!YOR: Trautwein Edition
!!!ENC: Frances Bennion
!!!CDT: 1732/3/31/-1809/5/31/
!!!CNT: Oesterreich
!!!YEC: Copyright (c) 1994, 2000 Center for Computer Assisted Research in the Humanities
!!!YEM: Rights to all derivative editions reserved.
!!!YEM: Refer to licensing agreement for further details.
!!!YEN: United States of America
**kern	**kern	**kern	**kern
*k[b-e-a-]	*k[b-e-a-]	*k[b-e-a-]	*k[b-e-a-]
*E-:	*E-:	*E-:	*E-:
*clefF4	*clefC3	*clefF	*clefF
*M3/4	*M3/4	*M3/4	*M3/4
2r	2r	2r	2r
4r	4r	4r	4b-
=1	=1	=1	=1
4E-	8g	8b-	4ee-
.	8a-	8cc	.
2r	8g	8b-	4ee-
.	8f	8a-	.
.	8e-	8g	4ee-
.	8r	8r	.
=2	=2	=2	=2
4E-	8g	8b-	4ee-
.	8a-	8cc	.
2r	8g	8b-	4ee-
.	8f	8a-	.
.	4e-	8g	4ee-
.	.	8r	.
=3	=3	=3	=3
2.GG	8E-	8e-	2.b
.	8F	8f	.
.	8E-	8e-	.
.	8D	8d	.
.	4E-	4e-	.
=4	=4	=4	=4
8AA-	2E-	2.e-	2cc
8BB-	.	.	.
8AA-	.	.	.
8GG	.	.	.
4AA-	4A-	.	4cc
=5	=5	=5	=5
4BB-	4F	4A-	8e-
.	.	.	8d
4BB-	4F	4A-	8e-
.	.	.	8d
4BB-	4F	4d	8cc
.	.	.	8b-
=6	=6	=6	=6
4E-	4G	4e-	8a-
.	.	.	8g
2r	2r	2r	8f
.	.	.	8e-
.	.	.	4b-
=7	=7	=7	=7
4E-	8g	8b-	4gg
.	8a-	8cc	.
2r	8g	8b-	4gg
.	8f	8a-	.
.	8e-	8g	4gg
.	8r	8r	.
=8	=8	=8	=8
4E-	8g	8b-	4gg
.	8a-	8cc	.
2r	8g	8b-	4gg
.	8f	8a-	.
.	8e-	8g	4gg
.	8r	8r	.
=9	=9	=9	=9
2.G	2.d-	2.b-	2.ee
=10	=10	=10	=10
2.A	2.c	[2.f	2ff
.	.	.	4ee-
=11	=11	=11	=11
4B-	4d	4f]	8dd
.	.	.	8ff
4r	4B-	8f	8dd
.	.	8d	8b-
4F	8F	8e-	8cc
.	8E-	8c	8a
=12	=12	=12	=12
4BB-	4D	4B-	4b-
4B-	4r	2r	2r
4r	8e-	.	.
.	8c	.	.
=13	=13	=13	=13
2r	8d	2.r	2.r
.	8f	.	.
.	8d	.	.
.	8B-	.	.
8E-	8c	.	.
8C	8A	.	.
=14	=14	=14	=14
8D	4B-	2.r	2r
8F	.	.	.
8D	2r	.	.
8BB-	.	.	.
8C	.	.	8ee-
8AA	.	.	8cc
=15	=15	=15	=15
4BB-	2.r	2r	8dd
.	.	.	8ff
2r	.	.	8dd
.	.	.	8b-
.	.	8aa-	4d
.	.	8ff	.
=16	=16	=16	=16
2.r	2r	8gg	4e-
.	.	8bb-	.
.	.	8gg	4r
.	.	8ee-	.
.	4g	8b-	8ddd-
.	.	8ee-	8bb-
=17	=17	=17	=17
2.r	4a-	4cc	8ccc
.	.	.	8eee-
.	4r	4r	8ccc
.	.	.	8aa-
.	4e	8g	8bb-
.	.	8cc	8gg
=18	=18	=18	=18
2.r	4f	4cc	8aa-
.	.	.	8ccc
.	4b-	4dd	8aa-
.	.	.	8ff
.	4e-	4ee-	8gg
.	.	.	8ee-
=19	=19	=19	=19
2.r	2a-	2.cc	8ff
.	.	.	8gg
.	.	.	8aa-
.	.	.	8gg
.	4a	.	8ff
.	.	.	8ee-
=20	=20	=20	=20
2.r	8b-	4b-	4b-
.	8a	.	.
.	8b-	2r	4r
.	8cc	.	.
.	8a-	.	4b-
.	8f	.	.
=21	=21	=21	=21
4E-	8g	8b-	4ee-
.	8a-	8cc	.
2r	8g	8b-	4ee-
.	8f	8a-	.
.	8e-	8g	4ee-
.	8r	8r	.
=22	=22	=22	=22
4E-	8g	8b-	4ee-
.	8a-	8cc	.
2r	8g	8b-	4ee-
.	8f	8a-	.
.	8e-	8g	4ee-
.	8r	8r	.
=23	=23	=23	=23
2.GG	8E-	8e-	2.b
.	8F	8f	.
.	8E-	8e-	.
.	8D	8d	.
.	4E-	4e-	.
=24	=24	=24	=24
4AA-	4E-	4e-	4cc
2r	2r	2r	2r
=25	=25	=25	=25
2.G	[2.e-	8b-	8dd-
.	.	8cc	8ee-
.	.	8b-	8dd-
.	.	8a	8cc
.	.	4b-	4dd-
=26	=26	=26	=26
4A-	4e-]	4a-	4cc
2r	2r	2r	2r
=27	=27	=27	=27
2.B-	8f	8a-	2.dd
.	8g	8b-	.
.	8f	8a-	.
.	8e-	8g	.
.	4f	4a-	.
=28	=28	=28	=28
4c	4e-	4g	4ee-
2r	2r	2r	2r
=29	=29	=29	=29
8G	2.dd-	8b-	2.ee
8A-	.	8cc	.
8G	.	8b-	.
8F	.	8a	.
4G	.	4b-	.
=30	=30	=30	=30
4A-	4cc	4cc	4ff
4D	4f	4b-	4aa-
4E-	8g	4b-	4gg
.	8e-	.	.
=31	=31	=31	=31
4A-	4c	4a-	4ff
4B-	4B-	4g	4ee-
4BB-	4A-	4f	4dd
=32	=32	=32	=32
4E-	4G	4g	4ee-
2r	2r	2r	4r
.	.	.	4cc
=33	=33	=33	=33
4BB-	4F	4A-	4e-
4r	4r	4r	4d
4BB-	4F	4A-	8cc
.	.	.	8b-
=34	=34	=34	=34
4BB-	4F	4A-	8e-
.	.	.	8d
4BB-	4F	4A-	8cc
.	.	.	8b-
4BB-	4F	4A-	8e-
.	.	.	8d
=35	=35	=35	=35
4BB-	4F	4A-	8cc
.	.	.	8b-
4BB-	4F	4A-	8e-
.	.	.	8d
4BB-	4F	4A-	8a-
.	.	.	8d
=36	=36	=36	=36
4EE-	4G	4G	4e-
2r	2r	2r	4r
.	.	.	4b-
=37	=37	=37	=37
4E-	2r	8e-	4gg
.	.	8g	.
2r	.	8b-	4ee-
.	.	8g	.
.	4e-	8b-	4ee-
.	.	8g	.
=38	=38	=38	=38
4E-	4g	8e-	4bb-
.	.	8g	.
2r	4e-	8b-	4gg
.	.	8g	.
.	4e-	8e-	8gg
.	.	8g	8bb-
=39	=39	=39	=39
4BB-	4B-	8d	8bb-
.	.	8b-	8aa-
2r	4d	8f	8aa-
.	.	8b-	8gg
.	4e-	8g	8gg
.	.	8b-	8ff
=40	=40	=40	=40
4BB-	4B-	8d	4ff
.	.	8b-	.
2r	2r	8f	4r
.	.	8b-	.
.	.	8d	4b-
.	.	8b-	.
=41	=41	=41	=41
4BB-	2r	8d	4ff
.	.	8a-	.
2r	.	8f	4dd
.	.	8a-	.
.	4B-	8f	4dd
.	.	8a-	.
=42	=42	=42	=42
4BB-	4f	8d	4aa-
.	.	8f	.
2r	4d	8a-	4ff
.	.	8f	.
.	4b-	8d	8ff
.	.	8f	8aa-
=43	=43	=43	=43
4E-	4e-	8e-	8aa-
.	.	8g	8gg
4r	4r	8b-	8gg
.	.	8a-	8ff
4BB-	8d	8a-	8ff
.	8e-	8g	8ee-
=44	=44	=44	=44
4E-	4e-	4g	4ee-
4EE-	4r	2r	4r
4G	4B-	.	8B-
.	.	.	8e-
=45	=45	=45	=45
2F	2A-	2.r	8e-
.	.	.	8d
.	.	.	8e-
.	.	.	8d
4G	4B-	.	8f
.	.	.	8e-
=46	=46	=46	=46
2D	2F	2.r	8g
.	.	.	8f
.	.	.	8g
.	.	.	8f
4E-	4G	.	8a-
.	.	.	8g
=47	=47	=47	=47
2.C	2E-	2r	8b-
.	.	.	8a
.	.	.	8b-
.	.	.	8a
.	4F	8A	8ee-
.	.	8e-	8a
=48	=48	=48	=48
4BB-	4B-	4d	8cc
.	.	.	8b-
2r	4B-	4e-	8dd
.	.	.	8cc
.	4B-	4f	8ee-
.	.	.	8dd
=49	=49	=49	=49
2.r	2.B-	2g	8ff
.	.	.	8ee-
.	.	.	8gg
.	.	.	8ee-
.	.	4e-	8cc
.	.	.	8a
=50	=50	=50	=50
4BB-	4B-	4d	8b-
.	.	.	8dd
2r	4B-	4dd	8ff
.	.	.	8bb-
.	4B-	4b-	8ddd
.	.	.	8bb-
=51	=51	=51	=51
2.r	2.B-	2.cc 2.e-	8bb-
.	.	.	8aa
.	.	.	8eee-
.	.	.	8ccc
.	.	.	8aa
.	.	.	8ccc
=52	=52	=52	=52
4BB-	4B-	4b- 4d	4bb-
2r	2r	4r	2r
.	.	4b-	.
=53	=53	=53	=53
4E-	8e-	4gg	4r
.	8g	.	.
4r	8b-	4ee-	8ggg
.	8g	.	8ggg
4E-	8b-	4ee-	4ggg
.	8g	.	.
=54	=54	=54	=54
4G	8e-	4bb-	4r
.	8g	.	.
4E-	8b-	4gg	8bbb-
.	8g	.	8bbb-
4E-	8e-	8gg	4bbb-
.	8g	8bb-	.
=55	=55	=55	=55
4B-	8d	8bb-	4bbb-
.	8b-	8aa-	.
4d	8f	8aa-	8bbb-
.	8b-	8gg	8bbb-
4e-	8g	8gg	8bbb-
.	8b-	8ff	8bbb-
=56	=56	=56	=56
4B-	8d	4ff	4bbb-
.	8b-	.	.
2r	8f	4r	2r
.	8b-	.	.
.	8d	4b-	.
.	8b-	.	.
=57	=57	=57	=57
2r	8d	4ff	4bbb-
.	8a-	.	.
.	8f	4dd	8bbb-
.	8a-	.	8bbb-
4BB-	8f	4dd	4bbb-
.	8a-	.	.
=58	=58	=58	=58
4F	8d	4aa-	4dddd
.	8f	.	.
4D	8a-	4ff	8dddd
.	8f	.	8dddd
4BB-	8a-	8ff	4dddd
.	8f	8aa-	.
=59	=59	=59	=59
4E-	4e-	8aa-	4eeee-
.	.	8gg	.
4r	4r	8gg	8eeee-
.	.	8ff	8eeee-
4BB-	8d	8ff	8eeee-
.	8e-	8ee-	8eeee-
=60	=60	=60	=60
4E-	4e-	4ee-	4eeee-
2r	2r	2r	2r
==	==	==	==
*-	*-	*-	*-
!!!RWG1: This file contains only pitch and duration data.
!!!RWG2: Transposing instruments are not transposed.
!!!RWG3: Spines may have incompatible meters.
!!!RWG4: Durations of rests and tied notes may be interpreted.
!!!RWG: Key is interpreted using the Humdrum key tool.
!!!GTL: 6 Quartetti ("Tost III")
!!!AFT: stage1
!!!END: 1997/04/15
!!!KEY: 3413761411
!!!EMD: Converted from MuseData to Humdrum Dec 16, 2000, by Andreas Kornstaedt using muse2kern.
!!!EMD: Manual editing by Craig Sapp, Nov 2001
